; generated by PrusaSlicer 2.7.4+win64 on 2024-05-27 at 17:47:51 UTC


;
;

;
;
; 

; external perimeters extrusion width = 0.45mm
; perimeters extrusion width = 0.45mm
; infill extrusion width = 0.45mm
; solid infill extrusion width = 0.45mm
; top infill extrusion width = 0.40mm
; support material extrusion width = 0.40mm
; first layer extrusion width = 0.40mm

; external perimeters extrusion width = 0.45mm
; perimeters extrusion width = 0.45mm
; infill extrusion width = 0.45mm
; solid infill extrusion width = 0.45mm
; top infill extrusion width = 0.40mm
; support material extrusion width = 0.40mm
; first layer extrusion width = 0.40mm
M73 P0 R4
;TYPE:Custom
START_GCODE EXTRUDER_TEMP=255 BED_TEMP=75
M190 S75 ; set bed temperature and wait for it to be reached
M104 S255 ; set temperature

SET_PRESSURE_ADVANCE ADVANCE=0.0
G21 ; set units to millimeters
G90 ; use absolute coordinates
M82 ; use absolute distances for extrusion
G92 E0
; Filament gcode
SET_PRESSURE_ADVANCE ADVANCE=0.0
SET_FAN_SPEED FAN=second_fan SPEED=1.0
M107
;LAYER_CHANGE
;Z:0.2
;HEIGHT:0.2
G1 E-5 F3000
G1 Z.5 F7200
G92 E0
G1 X116.721 Y38.313
G1 Z.2
G1 E5.2 F2400
G92 E0
;TYPE:Perimeter
;WIDTH:0.399999
G1 F1800
G1 X83.279 Y38.313 E.99293
G1 X82.315 Y37.348 E1.03343
G1 X82.315 Y23.906 E1.43254
G1 X83.279 Y22.942 E1.47302
M73 P1 R4
G1 X116.721 Y22.942 E2.46595
G1 X117.685 Y23.906 E2.50643
G1 X117.685 Y24.588 E2.52668
G1 X117.685 Y37.348 E2.90554
G1 X116.763 Y38.27 E2.94425
G1 X116.763 Y38.27 F7200
G1 X116.869 Y38.67
G1 F1800
G1 X83.131 Y38.67 E3.94597
G1 X81.957 Y37.496 E3.99527
M73 P2 R4
G1 X81.957 Y23.758 E4.40317
G1 X83.131 Y22.585 E4.45244
G1 X116.869 Y22.585 E5.45416
G1 X118.043 Y23.758 E5.50343
G1 X118.043 Y24.588 E5.52807
G1 X118.043 Y37.496 E5.91132
G1 X116.911 Y38.627 E5.95883
M73 P3 R4
G1 X116.911 Y38.627 F7200
G1 X117.017 Y39.027
;TYPE:External perimeter
G1 F900
G1 X82.983 Y39.027 E6.96934
G1 X81.6 Y37.644 E7.02741
G1 X81.6 Y23.61 E7.4441
G1 X82.983 Y22.227 E7.50217
M73 P4 R4
G1 X117.017 Y22.227 E8.51268
G1 X118.4 Y23.61 E8.57075
M73 P5 R4
G1 X118.4 Y24.588 E8.59979
G1 X118.4 Y37.644 E8.98744
G1 X117.059 Y38.984 E9.04373
G1 X116.661 Y39.022 F7200
G1 E4.04373 F3000
G92 E0
G1 Z.5 F7200
G1 X116.449 Y23.049
G1 Z.2
G1 E5.2 F2400
;TYPE:Solid infill
;WIDTH:0.400599
G1 F1500
G1 X117.418 Y24.018 E5.24076
G1 X117.418 Y24.523 E5.25578
G1 X116.104 Y23.209 E5.31105
G1 X115.598 Y23.209 E5.3261
G1 X117.418 Y25.029 E5.40265
G1 X117.418 Y25.535 E5.4177
G1 X115.092 Y23.209 E5.51553
G1 X114.586 Y23.209 E5.53058
M73 P6 R4
G1 X117.418 Y26.041 E5.64969
G1 X117.418 Y26.547 E5.66474
G1 X114.08 Y23.209 E5.80514
G1 X113.574 Y23.209 E5.82019
G1 X117.418 Y27.053 E5.98187
G1 X117.418 Y27.558 E5.99689
G1 X113.069 Y23.209 E6.17981
G1 X112.563 Y23.209 E6.19486
G1 X117.418 Y28.064 E6.39906
G1 X117.418 Y28.57 E6.41411
G1 X112.057 Y23.209 E6.6396
G1 X111.551 Y23.209 E6.65465
G1 X117.418 Y29.076 E6.90142
G1 X117.418 Y29.582 E6.91647
G1 X111.045 Y23.209 E7.18452
G1 X110.539 Y23.209 E7.19957
G1 X117.418 Y30.088 E7.4889
G1 X117.418 Y30.593 E7.50392
M73 P7 R4
G1 X110.034 Y23.209 E7.81449
G1 X109.528 Y23.209 E7.82954
G1 X117.418 Y31.099 E8.1614
G1 X117.418 Y31.605 E8.17645
G1 X109.022 Y23.209 E8.52959
G1 X108.516 Y23.209 E8.54464
G1 X117.418 Y32.111 E8.91906
G1 X117.418 Y32.617 E8.93411
G1 X108.01 Y23.209 E9.32981
G1 X107.504 Y23.209 E9.34486
G1 X117.418 Y33.123 E9.76185
G1 X117.418 Y33.628 E9.77687
M73 P8 R4
G1 X106.999 Y23.209 E10.2151
G1 X106.493 Y23.209 E10.23015
G1 X117.418 Y34.134 E10.68966
G1 X117.418 Y34.64 E10.70471
G1 X105.987 Y23.209 E11.1855
G1 X105.481 Y23.209 E11.20055
G1 X117.418 Y35.146 E11.70262
G1 X117.418 Y35.652 E11.71767
M73 P9 R4
G1 X104.975 Y23.209 E12.24103
G1 X104.469 Y23.209 E12.25608
G1 X117.418 Y36.158 E12.80072
G1 X117.418 Y36.663 E12.81574
G1 X103.964 Y23.209 E13.38162
G1 X103.458 Y23.209 E13.39667
G1 X117.418 Y37.169 E13.98383
G1 X117.418 Y37.237 E13.98585
M73 P10 R4
G1 X117.199 Y37.456 E13.99506
G1 X102.952 Y23.209 E14.59429
G1 X102.446 Y23.209 E14.60934
G1 X116.946 Y37.709 E15.21921
G1 X116.693 Y37.962 E15.22985
G1 X101.94 Y23.209 E15.85037
G1 X101.434 Y23.209 E15.86542
M73 P11 R4
G1 X116.27 Y38.045 E16.48943
G1 X115.764 Y38.045 E16.50448
G1 X100.929 Y23.209 E17.12847
G1 X100.423 Y23.209 E17.14352
G1 X115.258 Y38.045 E17.76751
G1 X114.752 Y38.045 E17.78256
M73 P12 R3
G1 X99.917 Y23.209 E18.40655
G1 X99.411 Y23.209 E18.4216
G1 X114.246 Y38.045 E19.04559
G1 X113.741 Y38.045 E19.06061
G1 X98.905 Y23.209 E19.68462
G1 X98.399 Y23.209 E19.69967
M73 P13 R3
G1 X113.235 Y38.045 E20.32368
G1 X112.729 Y38.045 E20.33873
G1 X97.894 Y23.209 E20.96272
G1 X97.388 Y23.209 E20.97777
G1 X112.223 Y38.045 E21.60176
G1 X111.717 Y38.045 E21.61681
M73 P14 R3
G1 X96.882 Y23.209 E22.2408
G1 X96.376 Y23.209 E22.25585
G1 X111.211 Y38.045 E22.87984
G1 X110.706 Y38.045 E22.89486
G1 X95.87 Y23.209 E23.51887
G1 X95.364 Y23.209 E23.53392
M73 P15 R3
G1 X110.2 Y38.045 E24.15793
G1 X109.694 Y38.045 E24.17298
G1 X94.859 Y23.209 E24.79697
G1 X94.353 Y23.209 E24.81202
G1 X109.188 Y38.045 E25.43601
G1 X108.682 Y38.045 E25.45106
G1 X93.847 Y23.209 E26.07505
M73 P16 R3
G1 X93.341 Y23.209 E26.0901
G1 X108.176 Y38.045 E26.71409
G1 X107.671 Y38.045 E26.72911
G1 X92.835 Y23.209 E27.35312
G1 X92.329 Y23.209 E27.36817
G1 X107.165 Y38.045 E27.99218
G1 X106.659 Y38.045 E28.00723
M73 P17 R3
G1 X91.824 Y23.209 E28.63122
G1 X91.318 Y23.209 E28.64627
G1 X106.153 Y38.045 E29.27026
G1 X105.647 Y38.045 E29.28531
G1 X90.812 Y23.209 E29.9093
G1 X90.306 Y23.209 E29.92435
M73 P18 R3
G1 X105.141 Y38.045 E30.54834
G1 X104.636 Y38.045 E30.56336
G1 X89.8 Y23.209 E31.18737
G1 X89.294 Y23.209 E31.20242
G1 X104.13 Y38.045 E31.82643
G1 X103.624 Y38.045 E31.84148
M73 P19 R3
G1 X88.789 Y23.209 E32.46547
G1 X88.283 Y23.209 E32.48052
G1 X103.118 Y38.045 E33.10451
G1 X102.612 Y38.045 E33.11956
G1 X87.777 Y23.209 E33.74355
G1 X87.271 Y23.209 E33.7586
M73 P20 R3
G1 X102.106 Y38.045 E34.38259
G1 X101.601 Y38.045 E34.39761
G1 X86.765 Y23.209 E35.02162
G1 X86.259 Y23.209 E35.03667
G1 X101.095 Y38.045 E35.66068
G1 X100.589 Y38.045 E35.67573
M73 P21 R3
G1 X85.754 Y23.209 E36.29972
G1 X85.248 Y23.209 E36.31477
G1 X100.083 Y38.045 E36.93876
G1 X99.577 Y38.045 E36.95381
G1 X84.742 Y23.209 E37.5778
G1 X84.236 Y23.209 E37.59285
M73 P22 R3
G1 X99.071 Y38.045 E38.21684
G1 X98.566 Y38.045 E38.23186
G1 X83.73 Y23.209 E38.85587
G1 X83.39 Y23.209 E38.86598
G1 X83.307 Y23.292 E38.86947
G1 X98.06 Y38.045 E39.48999
G1 X97.554 Y38.045 E39.50504
M73 P23 R3
G1 X83.054 Y23.545 E40.11491
G1 X82.801 Y23.798 E40.12555
G1 X97.048 Y38.045 E40.72478
G1 X96.542 Y38.045 E40.73983
G1 X82.582 Y24.085 E41.32699
G1 X82.582 Y24.591 E41.34204
G1 X96.036 Y38.045 E41.90792
G1 X95.53 Y38.045 E41.92297
M73 P24 R3
G1 X82.582 Y25.097 E42.46757
G1 X82.582 Y25.602 E42.48259
G1 X95.025 Y38.045 E43.00595
G1 X94.519 Y38.045 E43.021
G1 X82.582 Y26.108 E43.52307
G1 X82.582 Y26.614 E43.53812
M73 P25 R3
G1 X94.013 Y38.045 E44.01891
G1 X93.507 Y38.045 E44.03396
G1 X82.582 Y27.12 E44.49347
G1 X82.582 Y27.626 E44.50852
G1 X93.001 Y38.045 E44.94675
G1 X92.495 Y38.045 E44.9618
G1 X82.582 Y28.132 E45.37874
G1 X82.582 Y28.637 E45.39376
G1 X91.99 Y38.045 E45.78946
G1 X91.484 Y38.045 E45.80451
M73 P26 R3
G1 X82.582 Y29.143 E46.17893
G1 X82.582 Y29.649 E46.19398
G1 X90.978 Y38.045 E46.54712
G1 X90.472 Y38.045 E46.56217
G1 X82.582 Y30.155 E46.89403
G1 X82.582 Y30.661 E46.90908
G1 X89.966 Y38.045 E47.21965
G1 X89.46 Y38.045 E47.2347
G1 X82.582 Y31.167 E47.52399
G1 X82.582 Y31.672 E47.53901
M73 P27 R3
G1 X88.955 Y38.045 E47.80706
G1 X88.449 Y38.045 E47.82211
G1 X82.582 Y32.178 E48.06888
G1 X82.582 Y32.684 E48.08393
G1 X87.943 Y38.045 E48.30942
G1 X87.437 Y38.045 E48.32447
G1 X82.582 Y33.19 E48.52867
G1 X82.582 Y33.696 E48.54372
G1 X86.931 Y38.045 E48.72664
G1 X86.425 Y38.045 E48.74169
G1 X82.582 Y34.202 E48.90333
G1 X82.582 Y34.707 E48.91835
G1 X85.92 Y38.045 E49.05875
G1 X85.414 Y38.045 E49.0738
G1 X82.582 Y35.213 E49.19291
G1 X82.582 Y35.719 E49.20796
G1 X84.908 Y38.045 E49.30579
G1 X84.402 Y38.045 E49.32084
G1 X82.582 Y36.225 E49.39739
G1 X82.582 Y36.731 E49.41244
G1 X83.896 Y38.045 E49.46771
M73 P28 R3
G1 X83.39 Y38.045 E49.48276
G1 X82.422 Y37.076 E49.5235
G1 E44.5235 F3000
G92 E0
G1 X82.422 Y37.076 Z.5 F7200
G92 E0
G1 X94.075 Y72.255
G1 Z.2
G1 E5.2 F2400
;TYPE:Perimeter
;WIDTH:0.418128
G1 F1800
G1 X94.08 Y72.185 E5.20219
;WIDTH:0.409937
G1 X94.08 Y71.223 E5.23155
G1 X93.766 Y70.548 E5.25427
;WIDTH:0.448295
G1 X93.62 Y70.47 E5.25985
;WIDTH:0.49659
G1 X93.474 Y70.391 E5.26611
;WIDTH:0.544885
G1 X93.328 Y70.313 E5.27302
;WIDTH:0.59318
G1 X93.182 Y70.234 E5.28062
G1 X93.328 Y70.156 E5.28819
;WIDTH:0.544885
G1 X93.474 Y70.077 E5.29512
;WIDTH:0.49659
G1 X93.62 Y69.999 E5.30136
;WIDTH:0.448295
G1 X93.766 Y69.92 E5.30696
;WIDTH:0.418128
G1 X94.07 Y69.401 E5.32573
G1 X94.08 Y69.245 E5.33061
;WIDTH:0.409937
G1 X94.08 Y67.202 E5.39296
G1 X94.447 Y67.202 E5.40416
G1 X94.447 Y67.386 E5.40978
G1 X94.447 Y69.245 E5.46651
;WIDTH:0.418128
G1 X94.452 Y70.234 E5.49737
;WIDTH:0.409937
G1 X94.447 Y71.223 E5.52755
;WIDTH:0.418128
G1 X94.443 Y72.373 E5.56343
;WIDTH:0.460251
G1 X94.421 Y72.649 E5.57304
;WIDTH:0.502374
G1 X94.4 Y72.924 E5.58358
;WIDTH:0.544496
G1 X94.379 Y73.199 E5.59508
G1 X94.129 Y73.199 E5.60551
;WIDTH:0.576335
G1 X93.741 Y73.183 E5.62273
;WIDTH:0.608174
G1 X93.354 Y73.167 E5.64093
G1 X93.644 Y72.979 E5.65717
;WIDTH:0.576335
G1 X93.933 Y72.791 E5.67246
;WIDTH:0.544496
G1 X93.979 Y72.641 E5.679
;WIDTH:0.502374
G1 X94.025 Y72.491 E5.68499
;WIDTH:0.460251
G1 X94.07 Y72.341 E5.69042
;WIDTH:0.418128
G1 X94.072 Y72.315 E5.69123
G1 X94.072 Y72.315 F7200
G1 X93.684 Y72.279
;WIDTH:0.399999
G1 F1800
G1 X93.718 Y72.185 E5.6942
G1 X93.718 Y71.223 E5.72276
G1 X93.532 Y70.818 E5.73599
G1 X93.394 Y70.732 E5.74082
G1 X93.182 Y70.688 E5.74725
G1 X87.766 Y70.688 E5.90806
G1 X88.66 Y69.781 E5.94587
G1 X93.182 Y69.781 E6.08013
G1 X93.394 Y69.737 E6.08656
G1 X93.532 Y69.65 E6.0914
G1 X93.709 Y69.337 E6.10208
G1 X93.718 Y66.84 E6.17622
G1 X94.809 Y66.84 E6.20861
G1 X94.809 Y67.386 E6.22482
G1 X94.809 Y73.628 E6.41015
G1 X86.773 Y73.628 E6.64875
G1 X87.667 Y72.721 E6.68656
G1 X93.182 Y72.721 E6.85031
G1 X93.274 Y72.713 E6.85305
M73 P29 R3
G1 X93.599 Y72.521 E6.86426
G1 X93.664 Y72.336 E6.87008
G1 X93.664 Y72.336 F7200
G1 X93.36 Y72.185
;TYPE:External perimeter
G1 F900
G1 X93.36 Y71.223 E6.89864
G1 X93.299 Y71.088 E6.90304
G1 X93.182 Y71.045 E6.90674
G1 X86.912 Y71.045 E7.0929
G1 X88.511 Y69.423 E7.16053
G1 X93.182 Y69.423 E7.29922
G1 X93.299 Y69.38 E7.30292
G1 X93.36 Y69.245 E7.30732
G1 X93.36 Y66.483 E7.38933
G1 X95.166 Y66.483 E7.44295
G1 X95.166 Y67.386 E7.46976
G1 X95.166 Y73.985 E7.66569
G1 X85.92 Y73.985 E7.94022
G1 X87.517 Y72.364 E8.00778
G1 X93.182 Y72.364 E8.17598
M73 P30 R3
G1 X93.321 Y72.297 E8.18056
G1 X93.341 Y72.242 E8.1823
G1 X93.358 Y71.842 F7200
G1 E3.1823 F3000
G92 E0
G1 Z.5 F7200
G1 X88.85 Y70.234
G1 Z.2
G1 E5.2 F2400
;TYPE:Perimeter
;WIDTH:0.593182
G1 F1800
G1 X93.182 Y70.234 E5.39821
G1 E.39821 F3000
G92 E0
G1 X93.182 Y70.234 Z.5 F7200
G1 X87.856 Y73.175
G1 Z.2
G1 E5.2 F2400
G1 F1800
G1 X93.182 Y73.175 E5.44369
;WIDTH:0.608174
G1 X93.354 Y73.167 E5.45178
G1 E.45178 F3000
G92 E0
G1 X93.354 Y73.167 Z.5 F7200
G1 X94.342 Y70.46
G1 Z.2
G1 E5.2 F2400
;TYPE:Solid infill
;WIDTH:0.425721
G1 F1500
G1 X93.851 Y69.968 E5.22212
G1 E.22212 F3000
G92 E0
G1 X93.851 Y69.968 Z.5 F7200
G1 X103.565 Y70.234
G1 Z.2
G1 E5.2 F2400
M73 P31 R3
;TYPE:Perimeter
;WIDTH:0.59318
G1 F1800
G1 X103.711 Y70.156 E5.20757
;WIDTH:0.544885
G1 X103.857 Y70.077 E5.2145
;WIDTH:0.49659
G1 X104.003 Y69.999 E5.22074
;WIDTH:0.448295
G1 X104.149 Y69.92 E5.22634
;WIDTH:0.418128
G1 X104.453 Y69.401 E5.24511
G1 X104.463 Y69.245 E5.24999
;WIDTH:0.409937
G1 X104.463 Y67.202 E5.31234
G1 X104.83 Y67.202 E5.32354
G1 X104.83 Y67.386 E5.32916
G1 X104.83 Y69.245 E5.38589
;WIDTH:0.418128
G1 X104.835 Y70.234 E5.41675
;WIDTH:0.409937
G1 X104.83 Y71.223 E5.44693
;WIDTH:0.418128
G1 X104.826 Y72.373 E5.48281
;WIDTH:0.460251
G1 X104.805 Y72.649 E5.49242
;WIDTH:0.502374
G1 X104.784 Y72.924 E5.50296
;WIDTH:0.544496
G1 X104.762 Y73.199 E5.51447
G1 X104.512 Y73.199 E5.5249
;WIDTH:0.576335
G1 X104.125 Y73.183 E5.54208
;WIDTH:0.608174
G1 X103.737 Y73.167 E5.56033
G1 X104.027 Y72.979 E5.57657
;WIDTH:0.576335
G1 X104.316 Y72.791 E5.59186
;WIDTH:0.544496
G1 X104.362 Y72.641 E5.5984
;WIDTH:0.502374
G1 X104.408 Y72.491 E5.60439
;WIDTH:0.460251
G1 X104.453 Y72.341 E5.60982
;WIDTH:0.418128
G1 X104.463 Y72.185 E5.6147
;WIDTH:0.409937
G1 X104.463 Y71.223 E5.64406
G1 X104.149 Y70.548 E5.66678
;WIDTH:0.448295
G1 X104.003 Y70.47 E5.67236
;WIDTH:0.49659
G1 X103.857 Y70.391 E5.67862
;WIDTH:0.544885
G1 X103.711 Y70.313 E5.68553
;WIDTH:0.59318
G1 X103.618 Y70.263 E5.69036
G1 X103.618 Y70.263 F7200
G1 X104.069 Y69.379
;WIDTH:0.399999
G1 F1800
G1 X104.093 Y69.337 E5.6918
G1 X104.101 Y66.84 E5.76594
G1 X105.192 Y66.84 E5.79833
G1 X105.192 Y67.386 E5.81454
G1 X105.192 Y73.628 E5.99987
G1 X97.156 Y73.628 E6.23847
G1 X98.05 Y72.721 E6.27628
G1 X103.565 Y72.721 E6.44003
G1 X103.658 Y72.713 E6.4428
G1 X103.982 Y72.521 E6.45398
G1 X104.101 Y72.185 E6.46456
G1 X104.101 Y71.223 E6.49312
G1 X103.915 Y70.818 E6.50635
G1 X103.778 Y70.732 E6.51115
G1 X103.565 Y70.688 E6.51761
G1 X98.149 Y70.688 E6.67842
G1 X99.043 Y69.781 E6.71623
G1 X103.565 Y69.781 E6.85049
G1 X103.778 Y69.737 E6.85695
G1 X103.915 Y69.65 E6.86177
G1 X104.039 Y69.432 E6.86922
G1 X104.039 Y69.432 F7200
G1 X103.744 Y69.245
;TYPE:External perimeter
G1 F900
G1 X103.744 Y66.483 E6.95123
G1 X105.549 Y66.483 E7.00482
G1 X105.549 Y67.386 E7.03163
G1 X105.549 Y73.985 E7.22756
G1 X96.303 Y73.985 E7.50209
M73 P32 R3
G1 X97.9 Y72.364 E7.56965
G1 X103.565 Y72.364 E7.73785
G1 X103.704 Y72.297 E7.74243
G1 X103.744 Y72.185 E7.74596
G1 X103.744 Y71.223 E7.77452
G1 X103.682 Y71.088 E7.77893
G1 X103.565 Y71.045 E7.78263
G1 X97.295 Y71.045 E7.96879
G1 X98.894 Y69.423 E8.03642
G1 X103.565 Y69.423 E8.17511
G1 X103.682 Y69.38 E8.17881
G1 X103.719 Y69.299 E8.18145
G1 X103.741 Y68.9 F7200
G1 E3.18145 F3000
G92 E0
G1 Z.5 F7200
G1 X99.233 Y70.234
G1 Z.2
M73 P33 R3
G1 E5.2 F2400
;TYPE:Perimeter
;WIDTH:0.593182
G1 F1800
G1 X103.565 Y70.234 E5.39821
G1 E.39821 F3000
G92 E0
G1 X103.565 Y70.234 Z.5 F7200
G1 X98.24 Y73.175
G1 Z.2
G1 E5.2 F2400
G1 F1800
G1 X103.565 Y73.175 E5.44364
;WIDTH:0.608174
G1 X103.737 Y73.167 E5.45173
G1 E.45173 F3000
G92 E0
G1 X103.737 Y73.167 Z.5 F7200
G1 X104.725 Y70.46
G1 Z.2
G1 E5.2 F2400
;TYPE:Solid infill
;WIDTH:0.425721
G1 F1500
G1 X104.234 Y69.968 E5.22212
G1 E.22212 F3000
G92 E0
G1 X104.234 Y69.968 Z.5 F7200
G1 X107.107 Y67.209
G1 Z.2
G1 E5.2 F2400
;TYPE:Perimeter
;WIDTH:0.423576
G1 F1800
G1 X107.488 Y67.209 E5.21206
G1 X107.488 Y67.399 E5.21807
G1 X107.488 Y73.259 E5.40355
G1 X107.107 Y73.259 E5.41561
G1 X107.107 Y67.269 E5.6052
G1 X106.738 Y66.84 F7200
;WIDTH:0.399999
G1 F1800
G1 X107.857 Y66.84 E5.63842
G1 X107.857 Y67.399 E5.65502
G1 X107.857 Y73.628 E5.83997
G1 X106.738 Y73.628 E5.87319
M73 P34 R3
G1 X106.738 Y66.9 E6.07295
M73 P34 R2
G1 X106.738 Y66.9 F7200
G1 X106.381 Y66.483
;TYPE:External perimeter
G1 F1800
G1 X108.214 Y66.483 E6.12737
G1 X108.214 Y67.399 E6.15457
G1 X108.214 Y73.985 E6.35012
G1 X106.381 Y73.985 E6.40454
G1 X106.381 Y66.543 E6.6255
G1 X106.777 Y66.484 F7200
G1 E1.6255 F3000
G92 E0
G1 Z.5 F7200
G1 X110.251 Y68.306
G1 Z.2
G1 E5.2 F2400
;TYPE:Perimeter
;WIDTH:0.409936
G1 F1800
G1 X110.251 Y72.162 E5.31768
G1 X109.884 Y71.788 E5.33367
G1 X109.884 Y68.68 E5.42852
G1 X110.209 Y68.349 E5.44268
G1 E.44268 F3000
G92 E0
G1 X110.209 Y68.349 Z.5 F7200
G1 X116.705 Y67.294
G1 Z.2
G1 E5.2 F2400
;WIDTH:0.59318
G1 F1800
G1 X117.902 Y67.269 E5.25478
;WIDTH:0.544497
G1 X117.902 Y67.52 E5.26525
G1 X117.925 Y67.775 E5.27593
;WIDTH:0.499644
G1 X117.947 Y68.029 E5.28561
;WIDTH:0.454791
G1 X117.97 Y68.283 E5.29434
;WIDTH:0.409937
G1 X117.97 Y72.185 E5.41342
;WIDTH:0.418128
G1 X117.965 Y72.373 E5.41929
;WIDTH:0.460251
G1 X117.944 Y72.649 E5.4289
;WIDTH:0.502374
G1 X117.923 Y72.924 E5.43944
;WIDTH:0.544497
G1 X117.902 Y73.199 E5.45094
G1 X117.651 Y73.199 E5.46141
;WIDTH:0.576336
